X: 9129
T: DAF Truck
R: polka
M: 2/4
K: Dmajor
f/a/f/e/|:dA FA|BA AF|D>E FA|B2 BA/B/|
dA FA|BA A>f|aa f/g/f/e/|1 d2 df/e/:|2 d2 df||
|:ab/a/ fe|dA A2|af/a/ ba|g2 fg|
ab/a/ fe|dA A>f|aa f/g/f/e/|1 d2 df:|2 d2 df/e/||

